!! 00000] TT[WS
!!!OTL: Jian lantan
!!!ARE: Asia, China, Shanxi Qinyuan
!! Ethnic Group: Han
!! WII, 174 (1)
!!!SCT: J0662
!!!YEM: Copyright 1995, estate of Helmut Schaffrath.
**kern
*ICvox
*Ivox
*M4/4
*k[b-]
*F:
{4ff
8ee
8dd
4cc
8a
8cc
=1
4ff
8ee
8dd
8b-
8a
8g
8a
=2
4cc
8dd
8ff
8dd
8ff
8cc
8b-
=3
8a
8g
8d
8f
2g}
=4
{4cc
8b-
8a
4ff
8ff
8dd
=5
4cc
8cc
8dd
8f
8e
8d
8c
=6
4cc
8dd
8ff
8cc
8b-
8g
8a
=7
8g
4d
8c
2d}
==
!!!AGN: Xiaodiao, Qingge
!!!ONB: ESAC (Essen Associative Code) Database: CHINA
!!!AMT: simple quadruple
!!!AIN: vox
!!!EED: Helmut Schaffrath
!!!EEV: 1.0
*-
